Sweet-Rainbow/icons/androidstudio.svg

<?xml version="1.0" encoding="UTF-8" standalone="no"?>
<!-- Generator: Gravit.io -->

<svg
   xmlns:dc="http://purl.org/dc/elements/1.1/"
   xmlns:cc="http://creativecommons.org/ns#"
   xmlns:rdf="http://www.w3.org/1999/02/22-rdf-syntax-ns#"
   xmlns:svg="http://www.w3.org/2000/svg"
   xmlns="http://www.w3.org/2000/svg"
   xmlns:sodipodi="http://sodipodi.sourceforge.net/DTD/sodipodi-0.dtd"
   xmlns:inkscape="http://www.inkscape.org/namespaces/inkscape"
   style="isolation:isolate"
   viewBox="0 0 36 36"
   width="48"
   height="48"
   version="1.1"
   id="svg16"
   sodipodi:docname="androidstudio.svg"
   inkscape:version="0.92.4 (5da689c313, 2019-01-14)">
  <metadata
     id="metadata22">
    <rdf:RDF>
      <cc:Work
         rdf:about="">
        <dc:format>image/svg+xml</dc:format>
        <dc:type
           rdf:resource="http://purl.org/dc/dcmitype/StillImage" />
        <dc:title></dc:title>
      </cc:Work>
    </rdf:RDF>
  </metadata>
  <defs
     id="defs20" />
  <sodipodi:namedview
     pagecolor="#ffffff"
     bordercolor="#666666"
     borderopacity="1"
     objecttolerance="10"
     gridtolerance="10"
     guidetolerance="10"
     inkscape:pageopacity="0"
     inkscape:pageshadow="2"
     inkscape:window-width="640"
     inkscape:window-height="480"
     id="namedview18"
     showgrid="false"
     inkscape:zoom="29.365243"
     inkscape:cx="25.325443"
     inkscape:cy="32"
     inkscape:current-layer="svg16"
     units="px" />
  <linearGradient
     id="_lgradient_5"
     x1="0"
     y1="0.5"
     x2="1"
     y2="0.5"
     gradientTransform="matrix(33.608,0,0,36.97,6.755,9.03)"
     gradientUnits="userSpaceOnUse">
    <stop
       offset="0%"
       stop-opacity="1"
       style="stop-color:rgb(17,153,142)"
       id="stop2" />
    <stop
       offset="99.1304347826087%"
       stop-opacity="1"
       style="stop-color:rgb(56,239,125)"
       id="stop4" />
  </linearGradient>
  <linearGradient
     id="_lgradient_6"
     x1="0"
     y1="0.5"
     x2="1"
     y2="0.5"
     gradientTransform="scale(48)"
     gradientUnits="userSpaceOnUse">
    <stop
       offset="0%"
       stop-opacity="1"
       style="stop-color:rgb(17,153,142)"
       id="stop9" />
    <stop
       offset="99.1304347826087%"
       stop-opacity="1"
       style="stop-color:rgb(56,239,125)"
       id="stop11" />
  </linearGradient>
  <g
     id="g831"
     transform="scale(0.75)">
    <path
       id="path7"
       d="m 33.923,31.233 5.99,10.39 v 0 c 0.094,0.168 0.15,0.337 0.169,0.525 l 0.281,3.467 c 0,0.131 -0.056,0.244 -0.169,0.319 v 0 0 c -0.112,0.056 -0.243,0.056 -0.356,-0.019 l -2.886,-1.968 c -0.15,-0.094 -0.281,-0.225 -0.375,-0.394 l -5.779,-9.986 c -2.135,1.197 -4.607,1.89 -7.228,1.89 -2.624,0 -5.098,-0.694 -7.235,-1.893 l -5.791,10.027 v 0 c -0.094,0.15 -0.225,0.281 -0.375,0.393 l -2.886,1.95 C 7.17,46.009 7.039,46.027 6.927,45.952 v 0 0 C 6.814,45.877 6.739,45.765 6.758,45.634 L 7.02,42.148 C 7.039,41.96 7.095,41.791 7.189,41.623 l 11.714,-20.279 2.83,2.83 -3.486,6.054 c 1.556,0.862 3.374,1.368 5.304,1.368 1.931,0 3.749,-0.488 5.323,-1.368 v 0 0 l -3.486,-6.054 2.83,-2.83 3.703,6.396 c 1.662,-1.947 2.669,-4.453 2.669,-7.184 v 0 l 3.842,0.019 c 0,4.176 -1.74,7.959 -4.509,10.658 z M 23.57,20.556 h -0.019 v 0 c -1.574,0 -2.867,-1.293 -2.867,-2.886 0,-1.593 1.293,-2.886 2.867,-2.886 v -0.038 l 0.019,0.038 c 1.574,0.019 2.867,1.293 2.867,2.886 0,1.593 -1.293,2.868 -2.867,2.886 z m 3.58,-7.665 h -1.2 V 9.049 9.03 h -2.399 -2.38 v 0.019 3.842 h -1.218 c -1.181,0 -2.156,0.975 -2.156,2.155 v 4.892 h 0.019 c -0.019,0.187 0.094,0.394 0.337,0.637 l 4.33,4.33 c 0.3,0.3 0.693,0.45 1.068,0.45 v -0.019 l 0.019,0.019 c 0.393,0 0.787,-0.15 1.068,-0.45 l 4.33,-4.33 c 0.243,-0.243 0.337,-0.468 0.337,-0.637 h 0.019 V 15.065 C 29.305,13.866 28.349,12.891 27.15,12.891 Z"
       inkscape:connector-curvature="0"
       style="fill:url(#_lgradient_5);fill-rule:evenodd" />
    <path
       id="path14"
       d="m 6.48,33.65 v 0 c 0.535,0.966 0.186,2.185 -0.78,2.72 v 0 C 4.734,36.905 3.515,36.551 2.98,35.58 v 0 C 1.02,32.04 0,28.05 0,24 0,17.64 2.53,11.53 7.03,7.03 11.53,2.53 17.64,0 24,0 30.36,0 36.47,2.53 40.97,7.03 45.47,11.53 48,17.64 48,24 c 0,4.05 -1.02,8.04 -2.98,11.58 v 0 c -0.535,0.971 -1.754,1.325 -2.72,0.79 v 0 c -0.966,-0.535 -1.315,-1.754 -0.78,-2.72 v 0 C 43.15,30.7 44,27.38 44,24 44,18.7 41.89,13.61 38.14,9.86 34.39,6.11 29.3,4 24,4 18.7,4 13.61,6.11 9.86,9.86 6.11,13.61 4,18.7 4,24 c 0,3.38 0.85,6.7 2.48,9.65 z m 24.27,9.03 v 0 c 1.032,-0.397 2.19,0.116 2.585,1.145 v 0 c 0.395,1.029 -0.123,2.188 -1.155,2.585 v 0 C 29.44,47.46 26.52,48 23.58,48 20.69,48 17.81,47.48 15.1,46.46 v 0 c -1.032,-0.392 -1.554,-1.548 -1.165,-2.58 v 0 c 0.389,-1.032 1.543,-1.556 2.575,-1.17 v 0 c 2.26,0.86 4.66,1.29 7.07,1.29 2.45,0 4.88,-0.45 7.17,-1.32 z"
       inkscape:connector-curvature="0"
       style="fill:url(#_lgradient_6);fill-rule:evenodd" />
  </g>
</svg>

<?xml version="1.0" encoding="UTF-8" standalone="no"?>
<!-- Generator: Gravit.io -->
<svg xmlns="http://www.w3.org/2000/svg" xmlns:xlink="http://www.w3.org/1999/xlink" style="isolation:isolate" viewBox="0 0 48 48" width="48pt" height="48pt"><linearGradient id="_lgradient_5" x1="0" y1="0.5" x2="1" y2="0.5" gradientTransform="matrix(33.608,0,0,36.97,6.755,9.03)" gradientUnits="userSpaceOnUse"><stop offset="0%" stop-opacity="1" style="stop-color:rgb(17,153,142)"/><stop offset="99.1304347826087%" stop-opacity="1" style="stop-color:rgb(56,239,125)"/></linearGradient><path d=" M 33.923 31.233 L 39.913 41.623 L 39.913 41.623 C 40.007 41.791 40.063 41.96 40.082 42.148 L 40.363 45.615 C 40.363 45.746 40.307 45.859 40.194 45.934 L 40.194 45.934 L 40.194 45.934 C 40.082 45.99 39.951 45.99 39.838 45.915 L 36.952 43.947 C 36.802 43.853 36.671 43.722 36.577 43.553 L 30.798 33.567 C 28.663 34.764 26.191 35.457 23.57 35.457 C 20.946 35.457 18.472 34.763 16.335 33.564 L 10.544 43.591 L 10.544 43.591 C 10.45 43.741 10.319 43.872 10.169 43.984 L 7.283 45.934 C 7.17 46.009 7.039 46.027 6.927 45.952 L 6.927 45.952 L 6.927 45.952 C 6.814 45.877 6.739 45.765 6.758 45.634 L 7.02 42.148 C 7.039 41.96 7.095 41.791 7.189 41.623 L 18.903 21.344 L 21.733 24.174 L 18.247 30.228 C 19.803 31.09 21.621 31.596 23.551 31.596 C 25.482 31.596 27.3 31.108 28.874 30.228 L 28.874 30.228 L 28.874 30.228 L 25.388 24.174 L 28.218 21.344 L 31.921 27.74 C 33.583 25.793 34.59 23.287 34.59 20.556 L 34.59 20.556 L 38.432 20.575 C 38.432 24.751 36.692 28.534 33.923 31.233 Z  M 23.57 20.556 L 23.551 20.556 L 23.551 20.556 C 21.977 20.556 20.684 19.263 20.684 17.67 C 20.684 16.077 21.977 14.784 23.551 14.784 L 23.551 14.746 L 23.57 14.784 C 25.144 14.803 26.437 16.077 26.437 17.67 C 26.437 19.263 25.144 20.538 23.57 20.556 L 23.57 20.556 Z  M 27.15 12.891 L 25.95 12.891 L 25.95 9.049 L 25.95 9.03 L 23.551 9.03 L 21.171 9.03 L 21.171 9.049 L 21.171 12.891 L 19.953 12.891 C 18.772 12.891 17.797 13.866 17.797 15.046 L 17.797 19.938 L 17.816 19.938 C 17.797 20.125 17.91 20.332 18.153 20.575 L 22.483 24.905 C 22.783 25.205 23.176 25.355 23.551 25.355 L 23.551 25.336 L 23.57 25.355 C 23.963 25.355 24.357 25.205 24.638 24.905 L 28.968 20.575 C 29.211 20.332 29.305 20.107 29.305 19.938 L 29.324 19.938 L 29.324 15.065 C 29.305 13.866 28.349 12.891 27.15 12.891 L 27.15 12.891 Z " fill-rule="evenodd" fill="url(#_lgradient_5)"/><linearGradient id="_lgradient_6" x1="0" y1="0.5" x2="1" y2="0.5" gradientTransform="matrix(48,0,0,48,0,0)" gradientUnits="userSpaceOnUse"><stop offset="0%" stop-opacity="1" style="stop-color:rgb(17,153,142)"/><stop offset="99.1304347826087%" stop-opacity="1" style="stop-color:rgb(56,239,125)"/></linearGradient><path d=" M 6.48 33.65 L 6.48 33.65 C 7.015 34.616 6.666 35.835 5.7 36.37 L 5.7 36.37 C 4.734 36.905 3.515 36.551 2.98 35.58 L 2.98 35.58 C 1.02 32.04 0 28.05 0 24 C 0 17.64 2.53 11.53 7.03 7.03 C 11.53 2.53 17.64 0 24 0 C 30.36 0 36.47 2.53 40.97 7.03 C 45.47 11.53 48 17.64 48 24 C 48 28.05 46.98 32.04 45.02 35.58 L 45.02 35.58 C 44.485 36.551 43.266 36.905 42.3 36.37 L 42.3 36.37 C 41.334 35.835 40.985 34.616 41.52 33.65 L 41.52 33.65 C 43.15 30.7 44 27.38 44 24 C 44 18.7 41.89 13.61 38.14 9.86 C 34.39 6.11 29.3 4 24 4 C 18.7 4 13.61 6.11 9.86 9.86 C 6.11 13.61 4 18.7 4 24 C 4 27.38 4.85 30.7 6.48 33.65 Z  M 30.75 42.68 L 30.75 42.68 C 31.782 42.283 32.94 42.796 33.335 43.825 L 33.335 43.825 C 33.73 44.854 33.212 46.013 32.18 46.41 L 32.18 46.41 C 29.44 47.46 26.52 48 23.58 48 C 20.69 48 17.81 47.48 15.1 46.46 L 15.1 46.46 C 14.068 46.068 13.546 44.912 13.935 43.88 L 13.935 43.88 C 14.324 42.848 15.478 42.324 16.51 42.71 L 16.51 42.71 C 18.77 43.57 21.17 44 23.58 44 C 26.03 44 28.46 43.55 30.75 42.68 Z " fill-rule="evenodd" fill="url(#_lgradient_6)"/></svg>
